X: 33295
T: Put Me In The Big Chest
R: reel
M: 4/4
K: Gmajor
|:DEGA B3e|dBAG E3G|DEGA BABe|dBAB G4:|
|:dedB dGGB|dedB AGAB|dedB dege|dBAB G4:|
|:DEGA B3A|DBBA Bd e2|DEGA BABe|dBAB G4:|
|:dedB dGGB|dedB AGAB|dedB dege|dBAB G4:|

